!!! OTL: Berkowitz458
!!! Chapter: 1
!!! Section: IV
!!! Page: 114
!!! Mode: 
!!! Encoder: DJB
**kern
*staff1
*I"Piano
=1-
*clefG2
*k[f#c#g#d#]
*E:
*M7/8
8e/L
8B/
8B/J
8g#/L
16f#/K
8e/
16f#/K
8g#/J
=2
8f#/L
8B/
8B/J
8b/L
16g#/K
8a/
16f#/K
8e/J
=3
8e/L
8B/
8B/J
8g#/L
16f#/K
8a/
16f#/K
8g#/J
=4
8f#/L
8B/
8B/J
8b/L
16g#/K
8f#/
16g#/K
8e/J
=5
8cc#\L
8a\
8ee\J
[4cc#\
8cc#/L]
16g#/L
16b/JJ
=6
!!linebreak:original
8cc#\L
8a\
8ee\J
8cc#\L
8b\J
8g#/L
8f#/J
=7
8e/L
8B/
8B/J
8g#/L
16g#/K
8e/
16f#/K
8g#/J
=8
8f#/L
8B/
8B/J
8b/L
16g#/K
8a/
16f#/K
8e/J
==
*-
